src/images/crypto-icon-svg/exmo.svg

<svg xmlns="http://www.w3.org/2000/svg" width="32" height="32" viewBox="0 0 32 32">
  <g fill="none" fill-rule="evenodd">
    <circle cx="16" cy="16" r="16" fill="#347FFB" fill-rule="nonzero"/>
    <path fill="#FFF" d="M19.6990698,13.055 L16.8313953,20.805 L16.8134884,20.8525 L16.2865116,19.7975 L15.1865116,20.2975 L18.072093,12.5 L19.172093,12 L19.6990698,13.055 Z M26.8797674,13.2375 L24.012093,21 L23.4851163,19.9425 L22.3851163,20.4425 L22.4516279,20.26 L25.3193023,12.5 L26.4193023,12 L26.9437209,13.055 L26.8797674,13.2375 Z M20.7402326,19.95 L22.4286047,15.3875 L21.3260465,15.8875 L20.8016279,14.83 L19.1081395,19.3925 L19.6325581,20.45 L20.7402326,19.95 Z M11.6025581,15.45 L6.55790698,15.45 L7.41744186,16.25 L6.55790698,17.0625 L11.5974419,17.0625 L12.4544186,16.25 L11.6025581,15.45 Z M5.85953488,18.8325 L14.0148837,18.8325 L13.157907,19.64 L14.0148837,20.445 L5.85953488,20.445 L5,19.64 L5.85953488,18.8325 Z M8.36139535,12.065 L16.5116279,12.065 L15.6572093,12.8725 L16.5116279,13.6775 L8.36139535,13.6775 L7.50186047,12.8725 L8.36139535,12.065 Z"/>
  </g>
</svg>

<svg xmlns="http://www.w3.org/2000/svg" width="32" height="32"><g fill="none" fill-rule="evenodd"><circle cx="16" cy="16" r="16" fill="#347FFB" fill-rule="nonzero"/><path fill="#FFF" d="M19.7 13.055l-2.869 7.75-.018.047-.526-1.055-1.1.5 2.885-7.797 1.1-.5.527 1.055zm7.18.183L24.012 21l-.527-1.058-1.1.5.067-.182 2.867-7.76 1.1-.5.525 1.055-.064.183zm-6.14 6.712l1.689-4.563-1.103.5-.524-1.057-1.694 4.562.525 1.058 1.107-.5zm-9.137-4.5H6.558l.86.8-.86.813h5.04l.856-.813-.851-.8zM5.86 18.833h8.155l-.857.807.857.805H5.86L5 19.64l.86-.808zm2.501-6.768h8.15l-.854.808.855.805h-8.15l-.86-.806.86-.807z"/></g></svg>
